packages/ui/assets/icons/done.svg

<svg width="25" height="25" viewBox="0 0 25 25" fill="none" xmlns="http://www.w3.org/2000/svg">
<g id="done">
<ellipse id="Ellipse 1049" cx="12.75" cy="12.2656" rx="7" ry="7" fill="#4572EC"/>
<path id="Vector" d="M11.5104 13.2175L10.4645 12.1717C10.1617 11.8689 9.68029 11.8689 9.37749 12.1717C9.07469 12.4745 9.07469 12.9559 9.37749 13.2587L10.9592 14.8402C11.2619 15.1429 11.7511 15.1429 12.0539 14.8402L16.1238 10.777C16.4266 10.4742 16.4266 9.99279 16.1238 9.68999C15.821 9.38719 15.3396 9.38719 15.0368 9.68999L11.5104 13.2175Z" fill="white"/>
</g>
</svg>

<svg xmlns="http://www.w3.org/2000/svg" width="25" height="25" viewBox="0 0 25 25" fill="none"><ellipse cx="12.75" cy="12.266" rx="7" ry="7" fill="currentColor"/><path d="M11.51 13.217l-1.046-1.045a.764.764 0 0 0-1.087 0 .764.764 0 0 0 0 1.087l1.582 1.581a.773.773 0 0 0 1.095 0l4.07-4.063a.764.764 0 0 0 0-1.087.764.764 0 0 0-1.087 0l-3.527 3.527z" fill="#fff"/></svg>
